Bloom-Colors/scalable/devices/drive-harddisk-ieee1394-symbolic.svg

<svg width="16" height="16" version="1.1" xmlns="http://www.w3.org/2000/svg">
<path d="m7 11h3v1h-3z" fill="#666"/>
<path d="m7 13h3v1h-3z" fill="#666"/>
<path transform="rotate(135)" d="m-2.22-7.82h3v1h-3z" fill="#666"/>
<path transform="rotate(135)" d="m-2.22-5.82h3v1h-3z" fill="#666"/>
<path transform="rotate(225)" d="m-12.82 4.2h3v3h-3z" fill="#666"/>
<path d="m8.5 5c-1.38 0-2.5 1.119-2.5 2.5s1.12 2.5 2.5 2.5 2.5-1.119 2.5-2.5-1.12-2.5-2.5-2.5zm0 1c0.83 0 1.5 0.672 1.5 1.5s-0.67 1.5-1.5 1.5-1.5-0.672-1.5-1.5 0.67-1.5 1.5-1.5z" fill="#666"/>
</svg>

<svg xmlns="http://www.w3.org/2000/svg" width="16" height="16" version="1.1">
 <path style="fill:#444444" d="M 7,11 H 10 V 12 H 7 Z"/>
 <path style="fill:#444444" d="M 7,13 H 10 V 14 H 7 Z"/>
 <path style="fill:#444444" d="M -2.22,-7.82 H 0.78 V -6.82 H -2.22 Z" transform="rotate(135)"/>
 <path style="fill:#444444" d="M -2.22,-5.82 H 0.78 V -4.82 H -2.22 Z" transform="rotate(135)"/>
 <path style="fill:#444444" d="M -12.82,4.2 H -9.82 V 7.2 H -12.82 Z" transform="rotate(-135)"/>
 <path style="fill:#444444" d="M 8.5,5 C 7.12,5 6,6.119 6,7.5 6,8.881 7.12,10 8.5,10 9.88,10 11,8.881 11,7.5 11,6.119 9.88,5 8.5,5 Z M 8.5,6 C 9.33,6 10,6.672 10,7.5 10,8.328 9.33,9 8.5,9 7.67,9 7,8.328 7,7.5 7,6.672 7.67,6 8.5,6 Z"/>
</svg>
